build/system/PersonPropertiesSolid.svg

<svg xmlns="http://www.w3.org/2000/svg" fill="none" viewBox="0 0 24 24" focusable="false"><path d="M0 0H24V24H0z"/><path fill="#74767B" fill-rule="evenodd" d="M12 3C9.33497 3 7.26365 5.32002 7.56456 7.96802L7.8266 10.274C8.06781 12.3966 9.86377 14 12 14C14.1363 14 15.9322 12.3966 16.1734 10.274L16.4355 7.96803C16.7364 5.32002 14.6651 3 12 3ZM16.964 13C16.4971 13 16.1017 13.3267 16.0375 13.7656C15.9579 14.3098 15.3598 14.6375 14.8233 14.4308C14.3907 14.2642 13.8949 14.4257 13.6614 14.8094L13.1571 15.6384C12.9265 16.0174 13.0215 16.4994 13.3809 16.7738C13.8456 17.1286 13.8379 17.8128 13.3608 18.1653C12.9924 18.4374 12.8919 18.9257 13.1254 19.3094L13.6297 20.1384C13.8603 20.5174 14.3477 20.6804 14.7777 20.5222C15.3338 20.3177 15.9544 20.6661 16.0375 21.2344C16.1017 21.6733 16.4971 22 16.964 22L17.9726 22C18.4338 22 18.8262 21.681 18.8969 21.2484C18.993 20.6603 19.6375 20.3071 20.2223 20.5222C20.6524 20.6804 21.1397 20.5174 21.3703 20.1384L21.8746 19.3094C22.1081 18.9257 22.0076 18.4374 21.6392 18.1653C21.1621 17.8128 21.1545 17.1286 21.6192 16.7738C21.9785 16.4994 22.0735 16.0174 21.8429 15.6384L21.3386 14.8094C21.1052 14.4257 20.6093 14.2642 20.1767 14.4308C19.6165 14.6467 18.9883 14.3109 18.8969 13.7516C18.8262 13.3191 18.4338 13 17.9726 13L16.964 13ZM11.1541 15C11.6692 15 12.0139 15.5434 11.8848 16.042C11.7642 16.5078 11.7 16.9964 11.7 17.5C11.7 18.3115 11.8667 19.0841 12.1677 19.7854C12.3958 20.317 12.0443 21 11.4658 21L4.87265 21C4.42482 21 4.09217 20.5853 4.18932 20.1481L4.28926 19.6984C4.89931 16.9532 7.33419 15 10.1464 15L11.1541 15ZM19 17.5C19 18.3284 18.3284 19 17.5 19C16.6716 19 16 18.3284 16 17.5C16 16.6716 16.6716 16 17.5 16C18.3284 16 19 16.6716 19 17.5Z"/></svg>

<svg xmlns="http://www.w3.org/2000/svg" fill="none" viewBox="0 0 24 24" focusable="false"><path fill="#74767B" fill-rule="evenodd" d="M7.56 7.96C7.26 5.32 9.33 3 12 3a4.46 4.46 0 0 1 4.43 4.96l-.26 2.31A4.206 4.206 0 0 1 12 14c-2.14 0-3.94-1.61-4.18-3.73zm9.4 5.04c-.47 0-.86.32-.93.76-.08.54-.68.87-1.21.67-.43-.17-.93-.01-1.16.37l-.51.83c-.23.38-.13.86.23 1.14.46.35.45 1.04-.02 1.39-.37.27-.47.76-.24 1.14l.5.83c.24.38.72.55 1.15.39.56-.21 1.18.14 1.26.71.07.44.46.77.93.77h1.01c.46 0 .85-.32.92-.76.1-.58.74-.94 1.33-.72.43.16.91-.01 1.15-.39l.5-.83c.23-.38.13-.87-.24-1.14a.867.867 0 0 1-.02-1.39c.36-.28.46-.76.23-1.14l-.51-.83c-.23-.38-.73-.54-1.16-.37-.56.21-1.19-.12-1.28-.68-.07-.44-.46-.75-.92-.75zm-5.81 2c.51 0 .86.54.73 1.04-.12.46-.18.95-.18 1.46 0 .81.16 1.58.46 2.28.23.53-.12 1.22-.7 1.22H4.87c-.45 0-.78-.42-.69-.86l.1-.45A6 6 0 0 1 10.14 15zM19 17.5c0 .82-.68 1.5-1.5 1.5-.83 0-1.5-.68-1.5-1.5 0-.83.67-1.5 1.5-1.5.82 0 1.5.67 1.5 1.5"/></svg>
